X:1
T:(ca. 1510-1572)
T:Pierre Certon (ca. 1510-1572)
T:Que n' est elle aupres de moy
C:Pierre Certon
%%score 1 2 3 4
L:1/8
Q:1/2=55
M:2/2
K:F
V:1 treble nm="SOPRANO"
V:2 treble nm="ALTO"
V:3 treble-8 nm="TENORE"
V:4 bass nm="BASSO"
V:1
 d3 d BGBc | d2 d2 c2 B2 | A4 G4 | z8 | z2 d3 dBG | Bcdd c2 B2 | A4 G2 d2 | dd B2 A4 | z2 d3 dcA | %9
w: Que n'est elle au- pres de|moy cel- |e que|j'ay- me,||que n'est elle au-|pres de moy cel- le que|j'ay- me cel-||e que j'ay me,|que n'est elle au-|
 Bc d2 A2 AA | B4 AGAB | c2 G3 G G2 | G2 ^F2 G4 | G4 z4 | z8 | z8 | z4 z2 d2 | e2 d2 d2 ^c2 | %18
w: pres de moy cel- |e que|J'ay- * * * *||* * me.|_|||J'ay|es- té a- mou-|
 d4 d4 | g3 f e2 d2 | ^c2 d4 c2 | d4 A2 AA | Addd cB A2 | z ddd cB A2 | d2 d d2 d d2 | B2 A2 d3 c | %26
w: reux d'une|as- sez bel- le|da- * *|rne. El- |e m'a|faict, el- le m'a faict co- qu,|el- le m'a faict co- qu,|co- qu, co- qu, co-|qu dont j'ay es-|
 B2 A3 G G2- | G^F G4 z2 | d3 d BGBB | A2 d3 c B2 | A2 AA B4 | A4 z2 d2 | d2 c2 B2 A2- | %33
w: té in- * fa-|* * me.|Que n'est elle au- pres de|moy cel- |e que|j'ay- me, que j'ay-|me, cel-|* |e que j'ay-|
 AG G4 ^F2 | G8 | z8 | z2 d2 e2 d2 | d2 ^c2 d4 | z8 | z2 d2 e2 d2 | d2 ^c2 d2 A2 | B6 B2 | %42
w: |me.||Ung aultre a-|mye ay Faict,||ung aultre a-|mye ay faict qui|a bon|
 A2 G2 A4 | A8 | z8 | z8 | A2 AA AA d2 | d2 dd BB A2 | G4 z4 | d2 dd BB A2 | G2 c2 B2 A2- | %51
w: bruit et fa-|rne,|||Mais si trom- pé j'en suys|ja- mais n'ay- me- ray fem-|me,|ja- mais n'ay- me- ray fem-|me, n'ay- rne- ray|
 AG G4 ^F2 | G4 d3 d | BGBc d2 d2 | c2 B2 A4 | G4 z4 | z4 z2 d2 | ddBG Bcdd | c2 B2 A4 | %59
w: _ fem- * *|rne. Que n'est|elle au- pres de moy cel-||e que j'ay-|me,|que|* n'est elle au- pres de moy cel-||e que j'ay-|
 G2 d2 dd B2 | A4 z2 d2- | ddcA Bc d2 | A2 AA B4 | AGAB c2 A2- | AG G4 ^F2 | G8 |] %66
w: me, cel- |e que j'ay-|me, que|* n'est elle au- pres de moy|cel- |e que j'ay-|||me.|
V:2
 z4 G3 G | FDFG A2 G2 | GG F2 G4 | z8 | D3 D B,G,B,C | D2 D2 E2 G2 | G2 ^F2 G4 | D4 z4 | %8
w: Que n'est|elle au- pres de moy cel-||e que j'ay- me,||que n'est elle au- pres de|moy cel- |e que|j'ay- * *|me,|
 G3 G FDE^F | G2 G2 GG ^F2 | A2 D2 F4 | E2 F3 EDC | D4 B,4- | B,4 z4 | z8 | z2 G2 A2 G2 | %16
w: que n'est elle au- pres de|moy cel- |e que j'ai-|rne, cel- |e|que j'ay- * * *|* me.|_||J'ay es- té|
 G2 ^F2 G2 D2 | G3 F E2 E2 | D2 F2 G2 A2 | B8 | A8 | F2 F2 FF F2 | F2 DD EG ^F2 | G2 DD EG F2 | %24
w: a- mou- reux d'une|as- sez bel- |e|da- * * *|||me. El- le m'a faict,|el- |e m'a faict co- qu,|el- |e m'a faict co- qu,|
 A2 B A2 B A2 | G2 F2 A3 A | G2 F4 _E2 | D4 z2 D2- | DDB,G, B,C D2 | z2 A2 B2 G2 | G2 ^F2 G2 G2 | %31
w: co- qu, co- qu, co-|qu donf j'ay es-|té in- fa-|rne. Que|* n'est elle au- pres de moy|cel- |e que|* j'ay- rne, Que|
 GGFD EF G2 | GF F2 G2 F2- | F2 _E2 D4 | D4 z2 G2 | A2 G2 G2 ^F2 | G4 z4 | z4 z2 G2 | %38
w: _ n'est elle au- pres de moy|* * * cel- |e|* que j'ay-|me. Ung|aultre a- mye ay|faict,|ung|
 A2 G2 G2 ^F2 | G2 A2 c2 A2 | A2 A2 F2 F2 | G3 F E2 D2 | C2 D4 ^C2 | D8 | z8 | z8 | z2 D2 DDDD | %47
w: aultre a- mye ay|faict, ung aultre a-|mye ay faicf qui|a bon bruit et|fa- * *|me,|||Mais si trom- pé j'en|
 G2 G2 GGFF | D2 G4 ^F2 | G2 G2 GGFF | G2 C2 G2 FF | _E2 E2 D4 | D8 | G3 G FDFG | A2 G2 GG ^F2 | %55
w: suys ja- mais n'ay- me- rais|fem- * *|rne, ja- mais n'ay me- ray|fem- me, ja- mais n'ay-|me- ray fem-|rne.|Que n'est elle au- pres de|moy cel- |e que j'ay-|
 G4 z4 | z4 D3 D | B,G,B,C D2 D2 | E2 G4 ^F2 | G4 D4 | z4 G3 G | FDE^F G2 G2 | GG F2 G2 D2 | %63
w: me,|que n'est|elle au- pres de moy cel-||e que _|j'ay- me,|que n'est|elle au- pres de moy cel-|le que j'ay- * *|
 F4 E2 F2- | F2 _E2 D4 | =B,8 |] %66
w: ||me.|
V:3
 z8 | z8 | d3 d BGBc | d2 d2 c2 B2 | A4 G2 d2- | dc B2 A2 G2 | d4 G4 | z2 g3 gfd | ee d2 z4 | %9
w: ||Que n'est elle au- pres de|moy cel- |e que|j'ay- rne, cel-|* |e que j'ay- *|* me|que n'est elle au-|pres- de moy|
 z4 d3 d | BGBc d2 d2 | c6 B2 | A4 G4 | z2 d2 e2 d2 | c2 d2 d2 d2 | g3 f e2 d2 | c4 d4 | z8 | z8 | %19
w: que n'est|elle au- pres de moy cel-||e que|j'ay- me.|J'ay es- té|a- mou- reux d'une|as- sez- bel- le|da- me,|||
 d4 g3 f | e2 d2 e4 | d2 A2 AA A2 | e2 BB AG d2 | z8 | f2 d f2 d f2 | d4 z2 A2 | d3 d c2 B2 | %27
w: d'une as- sez|bel- le da-|rne. El- le m'a faict,|el- |e m'a faict co- qu,||co- qu, co- qu, co-|qu dont|j'ay es- té in-|
 A4 G4- | G4 z4 | z8 | d3 d BGBc | d4 z4 | z4 d4 | c2 B2 A4 | G8 | z8 | z2 d2 g3 f | e2 e2 d2 d2 | %38
w: fa- rne.|_||Que n'est elle au- pres de|moy|cel-||e que j'ay-|rne.||Ung aultre a-|mye ai faict, ung|
 e2 d2 d2 c2 | d2 d2 g2 f2 | e2 e2 d4 | z2 d2 g3 f | e2 d2 e4 | d2 A2 AAAA | d2 d2 ddBB | %45
w: aultre a- mye ay|faict, ung aultre a-|mye ay faict|qui a bon|bruit et fa-|rne, Mais si trom- pé j'en|suys ja- mais- n'ay- me- ray|
 A2 d2 dB c2 | d3 c/B/ A2 GA | G4 z4 | z8 | z4 d2 dd | BB A2 G2 d2 | B2 c2 A4 | G8 | z8 | z4 d3 d | %55
w: fem- * * * *||me,||ja- mais n'ay-|me\-ray- * fem- rne, n'ay-|rne- ray fem-|me.||Que n'est|
 BGBc d2 d2 | c2 B2 A4 | G2 d3 c B2 | A2 G2 d4 | G4 z2 g2- | ggfd ee d2 | z8 | d3 d BGBc | %63
w: elle au- pres de moy cel-||e que j'ay-|me, cel- |e que|j'ay- * *|me, que|* n'est elle au- pres de moy,||que n'est elle au- pres de|
 d2 d2 c4- | c2 B2 A4 | G8 |] %66
w: moy cel- |e|_ que j'ay-|me.|
V:4
 z8 | z8 | z4 G,2 G,2 | F,D,F,G, A,2 G,2 | G,G, ^F,2 G,4- | G,4 z4 | z4 D2 D2 | B,G,B,C D2 D2 | %8
w: ||Que n'est|elle au- pres de moy cel-||e que j'ay- me,||que n'est|elle au- pres de moy cel-|
 C2 B,2 A,4 | G,4 z4 | G,3 G, F,D,F,G, | A,2 F,2 F,2 G,2 | D,4 G,4- | G,4 z2 G,2 | %14
w: |e que j'ay-|me|que n'est elle au- pres de|moy cel- le que|j'ay- me.|_ J'ay|
 A,2 G,2 ^F,2 G,2 | G,2 G,2 C3 B, | A,2 A,2 G,2 B,2 | C2 D2 A,2 A,2 | D3 C B,2 A,2 | G,8 | A,8 | %21
w: es- té a- mou-|reux d'une as- sez|bel- |e da- *|* * rne, d'une|as- sez bel- le|da-||
 D,4 D,2 D,D, | D,4 z4 | G,2 B,B, A,A, D2 | D2 G, D2 G, D2 | G,2 D,2 D,2 F,2 | G,2 D,2 F,2 G,2 | %27
w: me. El- |e m'a|faict,|e!- |e m'a faict co- qu,|co- qu, co- qu, co-|qu dont j'ay es-|té in- fa- *|
 D,4 G,4 | z4 G,3 G, | F,D,F,F, G,4 | z8 | z2 D2 C2 B,2 | A,4 G,2 D,2 | F,2 G,2 D,4 | G,4 z2 G,2 | %35
w: * rne.|Que n'est|elle au- pres de moy||cel- |e que|j'ay- me, cel-||e que j'ay-|me. Ung|
 C3 B, A,2 A,2 | G,8 | z4 z2 G,2 | C2 B,2 A,2 A,2 | G,2 D,2 C,2 D,2 | A,2 A,2 D,2 D,2 | G,6 G,2 | %42
w: aultre a\-mye- * ay|faict,|ung|aultre a- mye ay|faict, ung aultre a-|mye ay faict qui|a bon|
 A,2 B,2 A,4 | D,4 D,2 D,D, | D,D, G,2 G,2 G,G, | F,2 F,2 _E,4 | D,8 | z4 D2 DD | B,2 B,2 A,4 | %49
w: bruit et fa-|rne, Mais si trom-|pé j'en suys ja- mais n'ay-|me- ray fem-|rne,|ja- mais j'ay-|me\-ray- * fem-|
 G,4 z2 D,2 | G,2 F,2 G,2 D,2 | _E,2 C,2 D,4 | G,8 | z8 | z8 | G,3 G, F,D,F,G, | %56
w: me, ja-|mais n'ay- rne- ray|fem- * *|me.|||Que n'est elle au- pres de|
 A,2 G,2 G,G, ^F,2 | G,8 | z8 | D3 D B,G,B,C | D2 D2 C2 B,2 | A,4 G,4 | z4 G,3 G, | %63
w: moy cel- |e que j'ay-|me,||que n'est elle au- pres de|moy cel- |e que|j'ay- me|que n'est|
 F,D,F,G, A,2 F,2 | F,2 G,2 D,4 | G,8 |] %66
w: elle au- pres de moy cel-||e que j'ay-|me.|

